svgs/sharp-regular/video.svg

<svg xmlns="http://www.w3.org/2000/svg" viewBox="0 0 576 512"><!--! Font Awesome Pro 6.6.0 by @fontawesome - https://fontawesome.com License - https://fontawesome.com/license (Commercial License) Copyright 2024 Fonticons, Inc. --><path d="M48 112l0 288 288 0 0-288L48 112zM0 64l48 0 288 0 48 0 0 48 0 48 0 192 0 48 0 48-48 0L48 448 0 448l0-48L0 112 0 64zM416 314.3l112 56 0-228.7-112 56 0-53.7L528 88l48-24 0 53.7 0 276.7 0 53.7-48-24L416 368l0-53.7z"/></svg>

<svg xmlns="http://www.w3.org/2000/svg" viewBox="0 0 576 512"><!--! Font Awesome Pro 6.5.2 by @fontawesome - https://fontawesome.com License - https://fontawesome.com/license (Commercial License) Copyright 2024 Fonticons, Inc. --><path d="M48 112V400H336V112H48zM0 64H48 336h48v48 48V352v48 48H336 48 0V400 112 64zM416 314.3l112 56V141.7l-112 56V144L528 88l48-24v53.7V394.3 448l-48-24L416 368V314.3z"/></svg>
